pkg/symbian/book.svg

<?xml version="1.0" encoding="UTF-8" standalone="no"?>
<!-- Created with Inkscape (http://www.inkscape.org/) -->
<svg
   xmlns:dc="http://purl.org/dc/elements/1.1/"
   xmlns:cc="http://web.resource.org/cc/"
   xmlns:rdf="http://www.w3.org/1999/02/22-rdf-syntax-ns#"
   xmlns:svg="http://www.w3.org/2000/svg"
   xmlns="http://www.w3.org/2000/svg"
   xmlns:xlink="http://www.w3.org/1999/xlink"
   xmlns:sodipodi="http://sodipodi.sourceforge.net/DTD/sodipodi-0.dtd"
   xmlns:inkscape="http://www.inkscape.org/namespaces/inkscape"
   width="48px"
   height="48px"
   id="svg1256"
   sodipodi:version="0.32"
   inkscape:version="0.45.1"
   sodipodi:docbase="C:\Users\Chris\Desktop"
   sodipodi:docname="X-office-address-book.svg"
   inkscape:output_extension="org.inkscape.output.svg.inkscape">
  <defs
     id="defs3">
    <linearGradient
       id="linearGradient12512">
      <stop
         style="stop-color:#ffffff;stop-opacity:1.0000000;"
         offset="0.0000000"
         id="stop12513" />
      <stop
         style="stop-color:#fff520;stop-opacity:0.89108908;"
         offset="0.50000000"
         id="stop12517" />
      <stop
         style="stop-color:#fff300;stop-opacity:0.0000000;"
         offset="1.0000000"
         id="stop12514" />
    </linearGradient>
    <radialGradient
       inkscape:collect="always"
       xlink:href="#linearGradient12512"
       id="radialGradient278"
       gradientUnits="userSpaceOnUse"
       cx="55.000000"
       cy="125.00000"
       fx="55.000000"
       fy="125.00000"
       r="14.375000" />
    <linearGradient
       inkscape:collect="always"
       id="linearGradient21644">
      <stop
         style="stop-color:#000000;stop-opacity:1;"
         offset="0"
         id="stop21646" />
      <stop
         style="stop-color:#000000;stop-opacity:0;"
         offset="1"
         id="stop21648" />
    </linearGradient>
    <linearGradient
       inkscape:collect="always"
       id="linearGradient2116">
      <stop
         style="stop-color:#ffffff;stop-opacity:1;"
         offset="0"
         id="stop2118" />
      <stop
         style="stop-color:#ffffff;stop-opacity:0;"
         offset="1"
         id="stop2120" />
    </linearGradient>
    <linearGradient
       id="linearGradient2094">
      <stop
         style="stop-color:#d6e3f0;stop-opacity:1.0000000;"
         offset="0.0000000"
         id="stop2096" />
      <stop
         style="stop-color:#95b1cf;stop-opacity:1.0000000;"
         offset="1.0000000"
         id="stop2098" />
    </linearGradient>
    <linearGradient
       id="linearGradient2803">
      <stop
         id="stop2805"
         offset="0"
         style="stop-color:#ffffff;stop-opacity:1;" />
      <stop
         id="stop2807"
         offset="1.0000000"
         style="stop-color:#cbcbcb;stop-opacity:1.0000000;" />
    </linearGradient>
    <linearGradient
       id="linearGradient2795">
      <stop
         id="stop2797"
         offset="0.0000000"
         style="stop-color:#000000;stop-opacity:0.068627454;" />
      <stop
         id="stop2799"
         offset="1.0000000"
         style="stop-color:#ffffff;stop-opacity:1.0000000;" />
    </linearGradient>
    <linearGradient
       gradientUnits="userSpaceOnUse"
       y2="4.9530048"
       x2="41.219128"
       y1="4.9530050"
       x1="35.433035"
       gradientTransform="matrix(0.254000,0.000000,1.822151e-16,3.759813,0.788629,0.148567)"
       id="linearGradient2801"
       xlink:href="#linearGradient2795"
       inkscape:collect="always" />
    <linearGradient
       gradientUnits="userSpaceOnUse"
       y2="84.287079"
       x2="10.219901"
       y1="93.338043"
       x1="10.496115"
       gradientTransform="matrix(2.262742,0.000000,0.000000,0.441942,1.000000,-0.875000)"
       id="linearGradient2813"
       xlink:href="#linearGradient2803"
       inkscape:collect="always" />
    <linearGradient
       inkscape:collect="always"
       xlink:href="#linearGradient2094"
       id="linearGradient2100"
       gradientTransform="matrix(0.957750,0.000000,0.000000,1.027989,1.000000,-0.571911)"
       x1="6.5871811"
       y1="22.132999"
       x2="14.511404"
       y2="22.132999"
       gradientUnits="userSpaceOnUse" />
    <linearGradient
       inkscape:collect="always"
       xlink:href="#linearGradient2116"
       id="linearGradient2112"
       gradientTransform="matrix(1.025428,0.000000,0.000000,0.957303,0.000000,-0.806758)"
       x1="73.361984"
       y1="26.652197"
       x2="-2.7582901"
       y2="21.270376"
       gradientUnits="userSpaceOnUse" />
    <radialGradient
       inkscape:collect="always"
       xlink:href="#linearGradient21644"
       id="radialGradient21650"
       cx="25.125"
       cy="36.75"
       fx="25.125"
       fy="36.75"
       r="15.75"
       gradientTransform="matrix(1.000000,0.000000,0.000000,0.595238,-6.245005e-16,14.87500)"
       gradientUnits="userSpaceOnUse" />
  </defs>
  <sodipodi:namedview
     id="base"
     pagecolor="#ffffff"
     bordercolor="#666666"
     borderopacity="0.27843137"
     inkscape:pageopacity="0.0"
     inkscape:pageshadow="2"
     inkscape:zoom="5.6568542"
     inkscape:cx="20.75205"
     inkscape:cy="24.468855"
     inkscape:current-layer="layer1"
     showgrid="false"
     inkscape:grid-bbox="true"
     inkscape:document-units="px"
     inkscape:window-width="765"
     inkscape:window-height="582"
     inkscape:window-x="80"
     inkscape:window-y="25"
     fill="#ef2929"
     stroke="#cc0000"
     inkscape:showpageshadow="false" />
  <metadata
     id="metadata4">
    <rdf:RDF>
      <cc:Work
         rdf:about="">
        <dc:format>image/svg+xml</dc:format>
        <dc:type
           rdf:resource="http://purl.org/dc/dcmitype/StillImage" />
        <dc:title>Addess Book</dc:title>
        <dc:date />
        <dc:creator>
          <cc:Agent>
            <dc:title>Jakub Steiner</dc:title>
          </cc:Agent>
        </dc:creator>
        <dc:source>http://jimmac.musichall.cz</dc:source>
        <dc:subject>
          <rdf:Bag>
            <rdf:li>address</rdf:li>
            <rdf:li>contact</rdf:li>
            <rdf:li>book</rdf:li>
            <rdf:li>office</rdf:li>
          </rdf:Bag>
        </dc:subject>
        <cc:license
           rdf:resource="http://creativecommons.org/licenses/by-sa/2.0/" />
      </cc:Work>
      <cc:License
         rdf:about="http://creativecommons.org/licenses/by-sa/2.0/">
        <cc:permits
           rdf:resource="http://web.resource.org/cc/Reproduction" />
        <cc:permits
           rdf:resource="http://web.resource.org/cc/Distribution" />
        <cc:requires
           rdf:resource="http://web.resource.org/cc/Notice" />
        <cc:requires
           rdf:resource="http://web.resource.org/cc/Attribution" />
        <cc:permits
           rdf:resource="http://web.resource.org/cc/DerivativeWorks" />
        <cc:requires
           rdf:resource="http://web.resource.org/cc/ShareAlike" />
      </cc:License>
    </rdf:RDF>
  </metadata>
  <g
     id="layer1"
     inkscape:label="Layer 1"
     inkscape:groupmode="layer">
    <path
       sodipodi:type="arc"
       style="opacity:1;color:#000000;fill:url(#radialGradient21650);fill-opacity:1;fill-rule:evenodd;stroke:none;stroke-width:1;stroke-linecap:round;stroke-linejoin:round;marker:none;marker-start:none;marker-mid:none;marker-end:none;stroke-miterlimit:4;stroke-dasharray:none;stroke-dashoffset:0;stroke-opacity:1;visibility:visible;display:inline;overflow:visible"
       id="path21642"
       sodipodi:cx="25.125"
       sodipodi:cy="36.75"
       sodipodi:rx="15.75"
       sodipodi:ry="9.375"
       d="M 40.875 36.75 A 15.75 9.375 0 1 1  9.375,36.75 A 15.75 9.375 0 1 1  40.875 36.75 z"
       transform="matrix(1.150794,0.000000,0.000000,1.000000,-4.913690,0.625000)" />
    <path
       sodipodi:nodetypes="ccccccc"
       id="path21640"
       d="M 37.209384,21.763574 L 44.444435,21.763574 C 44.79495,21.763574 44.986742,21.801928 45.038825,22.172513 L 45.939072,30.290267 C 46.018433,30.838284 46.146559,31.149038 45.779508,31.167522 L 37.050661,31.167522 L 37.209384,21.763574 z "
       style="opacity:0.48538011;color:#000000;fill:none;fill-opacity:1;fill-rule:evenodd;stroke:#ffffff;stroke-width:1.00000072;stroke-linecap:round;stroke-linejoin:round;marker:none;marker-start:none;marker-mid:none;marker-end:none;stroke-miterlimit:4;stroke-dasharray:none;stroke-dashoffset:0;stroke-opacity:1;visibility:visible;display:inline;overflow:visible" />
    <path
       style="color:#000000;fill:#5b6b94;fill-opacity:1;fill-rule:nonzero;stroke:#364878;stroke-width:1.00000012;stroke-linecap:round;stroke-linejoin:round;marker:none;marker-start:none;marker-mid:none;marker-end:none;stroke-miterlimit:4;stroke-dashoffset:0;stroke-opacity:1;visibility:visible;display:inline;overflow:visible"
       d="M 6.3643222,5.5185897 C 6.4551049,3.6036003 7.3719758,2.5542814 9.0788784,2.549044 L 38.405776,2.4590577 C 38.652361,2.4583011 38.974317,2.6592071 38.999012,2.9089888 L 42.257491,35.867228 L 40.942189,35.923862 L 41.571429,42.369516 C 41.632441,42.994499 41.390059,43.52882 40.5,43.533035 L 9.7893046,43.678474 C 7.25676,43.690468 4.6538454,41.59976 4.7759337,39.024403 L 6.3643222,5.5185897 z "
       id="rect1408"
       sodipodi:nodetypes="csssccsssss" />
    <path
       id="path2489"
       d="M 40.125,34.875 L 10.9375,35 C 9.3809819,35.177868 8.125,36.39612 8.125,38 C 8.125,39.60388 9.3809819,40.822132 10.9375,41 L 40.125,41.125 L 40.125,41.0625 C 38.469378,40.984348 37.125,39.674851 37.125,38 C 37.125,36.325149 38.469378,35.015652 40.125,34.9375 L 40.125,34.875 z "
       style="color:#000000;fill:url(#linearGradient2813);fill-opacity:1;fill-rule:nonzero;stroke:none;stroke-width:1;stroke-linecap:round;stroke-linejoin:round;marker:none;marker-start:none;marker-mid:none;marker-end:none;stroke-miterlimit:4;stroke-dashoffset:0;stroke-opacity:1;visibility:visible;display:inline;overflow:visible" />
    <path
       sodipodi:nodetypes="ccccccssc"
       id="path2784"
       d="M 9.6875,2.8125 C 7.9805897,2.8125 7.050103,3.8215062 6.96875,5.6738658 L 5.3125,37.825772 C 5.22054,40.904199 7.1393732,42.654485 9.125,43.15625 C 4.875,41.525579 5.4375,34.164455 10.75,34.195222 L 41.648286,34.195222 L 38.335786,3.2432432 C 38.310025,3.0025304 37.987878,2.8125 37.742036,2.8125 L 9.6875,2.8125 z "
       style="color:#000000;fill:url(#linearGradient2100);fill-opacity:1;fill-rule:nonzero;stroke:none;stroke-width:1;stroke-linecap:round;stroke-linejoin:round;marker:none;marker-start:none;marker-mid:none;marker-end:none;stroke-miterlimit:4;stroke-dashoffset:0;stroke-opacity:1;visibility:visible;display:inline;overflow:visible" />
    <rect
       y="3.968539"
       x="9.7886267"
       height="29.604792"
       width="2"
       id="rect2793"
       style="opacity:0.48044691;color:#000000;fill:url(#linearGradient2801);fill-opacity:1;fill-rule:nonzero;stroke:none;stroke-width:1;stroke-linecap:round;stroke-linejoin:round;marker:none;marker-start:none;marker-mid:none;marker-end:none;stroke-miterlimit:4;stroke-dashoffset:0;stroke-opacity:0.60818715;visibility:visible;display:inline;overflow:visible"
       transform="matrix(1.000000,0.000000,-3.582731e-2,0.999358,0.000000,0.000000)" />
    <path
       style="color:#000000;fill:none;fill-opacity:1;fill-rule:nonzero;stroke:url(#linearGradient2112);stroke-width:1.00000012;stroke-linecap:round;stroke-linejoin:miter;marker:none;marker-start:none;marker-mid:none;marker-end:none;stroke-miterlimit:20;stroke-dasharray:none;stroke-dashoffset:0;stroke-opacity:1;visibility:visible;display:inline;overflow:visible"
       d="M 9.8751008,3.3336831 C 8.1912014,3.3336831 7.5384236,4.0658459 7.4581673,5.887831 L 6.1592633,35.777198 C 7.0925916,34.170451 8.5988591,33.594437 11.011665,33.594437 L 40.963081,33.594437 L 38.137179,3.7573631 C 38.114727,3.5203092 37.793961,3.3336831 37.551434,3.3336831 L 9.8751008,3.3336831 z "
       id="path2104"
       sodipodi:nodetypes="cccscssc" />
  </g>
</svg>

<?xml version="1.0" encoding="UTF-8" standalone="no"?>
<svg xmlns="http://www.w3.org/2000/svg" width="48px" height="48px" baseProfile="tiny" version="1.1" xmlns:xlink="http://www.w3.org/1999/xlink" viewBox="0 0 48 48">
 <defs>
  <linearGradient id="linearGradient2813" y2="84.287" gradientUnits="userSpaceOnUse" y1="93.338" gradientTransform="matrix(2.262742,0.000000,0.000000,0.441942,1.000000,-0.875000)" x2="10.22" x1="10.496">
   <stop stop-color="#FFF" offset="0"/>
   <stop stop-color="#cbcbcb" offset="1"/>
  </linearGradient>
  <linearGradient id="linearGradient2801" y2="4.953" gradientUnits="userSpaceOnUse" y1="4.953" gradientTransform="matrix(0.254000,0.000000,1.822151e-16,3.759813,0.788629,0.148567)" x2="41.219" x1="35.433">
   <stop stop-color="#000" stop-opacity="0.068627454" offset="0"/>
   <stop stop-color="#FFF" offset="1"/>
  </linearGradient>
  <linearGradient id="linearGradient2112" y2="21.27" gradientUnits="userSpaceOnUse" x2="-2.7583" gradientTransform="matrix(1.025428,0.000000,0.000000,0.957303,0.000000,-0.806758)" y1="26.652" x1="73.362">
   <stop stop-color="#FFF" offset="0"/>
   <stop stop-color="#FFF" stop-opacity="0" offset="1"/>
  </linearGradient>
  <radialGradient id="radialGradient21650" gradientUnits="userSpaceOnUse" cy="36.75" cx="25.125" gradientTransform="matrix(1.000000,0.000000,0.000000,0.595238,-6.245005e-16,14.87500)" r="15.75">
   <stop stop-color="#000" offset="0"/>
   <stop stop-color="#000" stop-opacity="0" offset="1"/>
  </radialGradient>
  <linearGradient id="linearGradient2100" y2="22.133" gradientUnits="userSpaceOnUse" x2="14.511" gradientTransform="matrix(0.957750,0.000000,0.000000,1.027989,1.000000,-0.571911)" y1="22.133" x1="6.5872">
   <stop stop-color="#d6e3f0" offset="0"/>
   <stop stop-color="#95b1cf" offset="1"/>
  </linearGradient>
 </defs>
 <g id="layer1">
  <path id="path21642" style="marker-end:none;color:#000000;marker-start:none;marker-mid:none;" d="M40.88,36.75c0,1.23-0.41,2.45-1.2,3.59-0.8,1.14-1.96,2.17-3.42,3.04s-3.2,1.56-5.11,2.03-3.96,0.72-6.02,0.72c-2.07,0-4.12-0.25-6.03-0.72s-3.65-1.16-5.11-2.03-2.62-1.9-3.42-3.04c-0.788-1.14-1.195-2.36-1.195-3.59s0.407-2.45,1.195-3.59c0.8-1.14,1.96-2.17,3.42-3.04s3.2-1.56,5.11-2.03,3.96-0.71,6.02-0.71c2.07,0,4.12,0.24,6.03,0.71s3.65,1.16,5.11,2.03,2.62,1.9,3.42,3.04c0.79,1.14,1.2,2.36,1.2,3.59z" fill-rule="evenodd" transform="matrix(1.150794,0.000000,0.000000,1.000000,-4.913690,0.625000)" fill="url(#radialGradient21650)"/>
  <path id="path21640" opacity="0.48538011" stroke-linejoin="round" style="marker-end:none;color:#000000;marker-start:none;stroke-dasharray:none;marker-mid:none;" d="M37.21,21.76h7.23c0.35,0,0.55,0.04,0.6,0.41l0.9,8.12c0.08,0.55,0.21,0.86-0.16,0.88h-8.73l0.16-9.41z" stroke-dashoffset="0" stroke="#FFF" stroke-linecap="round" stroke-miterlimit="4" stroke-width="1.00000072" fill="none"/>
  <path id="rect1408" stroke-linejoin="round" style="marker-end:none;color:#000000;marker-start:none;marker-mid:none;" d="M6.364,5.519c0.091-1.915,1.008-2.965,2.715-2.97l29.331-0.09c0.24-0.001,0.56,0.2,0.59,0.45l3.26,32.961-1.32,0.05,0.63,6.45c0.06,0.62-0.18,1.16-1.07,1.16l-30.711,0.15c-2.532,0.01-5.135-2.08-5.013-4.66l1.588-33.501z" fill-rule="nonzero" stroke-dashoffset="0" stroke="#364878" stroke-linecap="round" stroke-miterlimit="4" stroke-width="1.00000012" fill="#5b6b94"/>
  <path id="path2489" style="marker-end:none;color:#000000;marker-start:none;marker-mid:none;" fill-rule="nonzero" fill="url(#linearGradient2813)" d="M40.13,34.88l-29.19,0.12c-1.559,0.18-2.815,1.4-2.815,3s1.256,2.82,2.815,3l29.19,0.13v-0.07c-1.66-0.08-3-1.39-3-3.06s1.34-2.98,3-3.06v-0.06z"/>
  <path id="path2784" style="marker-end:none;color:#000000;marker-start:none;marker-mid:none;" fill-rule="nonzero" fill="url(#linearGradient2100)" d="M9.688,2.813c-1.707,0-2.638,1.009-2.719,2.861l-1.656,32.156c-0.092,3.07,1.826,4.82,3.812,5.33-4.25-1.63-3.687-9,1.625-8.96h30.9l-3.31-30.957c-0.03-0.24-0.35-0.43-0.6-0.43h-28.052z"/>
  <rect id="rect2793" opacity="0.48045" style="marker-end:none;color:#000000;marker-start:none;marker-mid:none;" fill-rule="nonzero" transform="matrix(1.000000,0.000000,-3.582731e-2,0.999358,0.000000,0.000000)" height="29.605" width="2" y="3.9685" x="9.7886" fill="url(#linearGradient2801)"/>
  <path id="path2104" stroke-linejoin="miter" style="marker-end:none;color:#000000;marker-start:none;stroke-dasharray:none;marker-mid:none;" d="M9.875,3.334c-1.684,0-2.337,0.732-2.417,2.554l-1.299,29.892c0.934-1.61,2.44-2.19,4.851-2.19h29.95l-2.82-29.833c-0.03-0.237-0.35-0.423-0.59-0.423h-27.675z" stroke-dashoffset="0" stroke="url(#linearGradient2112)" stroke-linecap="round" stroke-miterlimit="20" stroke-width="1.00000012" fill="none"/>
 </g>
</svg>
